static/assets/template/assets/img/icons/essential/detailed/News.svg

<svg height="132" viewBox="0 0 146 132" width="146" xmlns="http://www.w3.org/2000/svg"><g fill="none" fill-rule="evenodd" transform="translate(1 2)"><path d="m22 128.2c-11.8 0-21.3-9.5-21.3-21.3v-81h42.6v81c0 11.8-9.6 21.3-21.3 21.3z" fill-rule="nonzero"/><path d="m5.7 25.7h37.5v81.6c0 11.5-9.4 20.9-20.9 20.9h-.2c-11.5 0-20.9-9.4-20.9-20.9v-81.6z" fill-rule="nonzero"/><path d="m9.2 25.9h34.1v81c0 11.8-9.5 21.3-21.3 21.3s-21.3-9.5-21.3-21.3v-81" stroke-linecap="round" stroke-linejoin="round" stroke-width="3"/><g transform="translate(20)"><path d="m13.3.4-.3 20.8 11.8 92.4-14.5 15.2 85.5.1c6.7 0 12.1-5.4 12.1-12.1v-116.3h-94.6z" fill-rule="nonzero"/><path d="m27.1 2.3h-14.1v24.4l-12.2 88.6h94.9c6.7 0 12.1-5.2 12.1-11.6v-101.3h-80.7z" fill-rule="nonzero"/><g stroke-linecap="round" stroke-linejoin="round" stroke-width="3"><path d="m29.9.4h-.6"/><path d="m22.9.4h-9.9v25.4l-12.2 89.5h94.9c6.7 0 12.1-5.4 12.1-12.1v-102.9h-64.1"/></g></g><g transform="translate(8 12)"><path d="m12.9 103.3c-6.7 0-12.1-5.4-12.1-12.1v-91h24.2v91c0 6.7-5.4 12.1-12.1 12.1z" fill-rule="nonzero"/><path d="m21.3.3h3.7v91.2c0 6.5-5.3 11.8-11.8 11.8h-.3c-6.5 0-11.8-5.3-11.8-11.8v-91.2z" fill="#c4e0ff" fill-rule="nonzero"/><g stroke-linecap="round" stroke-linejoin="round" stroke-width="3"><path d="m25 88.3v.4"/><path d="m25 .3v74"/><path d="m24.6 94.1c-1.3 5.3-6.1 9.2-11.7 9.2-6.7 0-12.1-5.4-12.1-12.1v-91h14.4"/></g></g><g transform="translate(21 13)"><g fill-rule="nonzero"><path d="m122.4.7v93.2c0 11.2-8.7 20.4-19.7 21.3-.5 0-1.1.1-1.6.1h-78.8v-114.5h100.1z"/><path d="m.8 115.2h.2z"/><path d="m121.4 5.2v90.5c0 10.8-8.7 19.7-19.7 20.5-.5 0-1.1.1-1.6.1h-100.1c9.4 0 17.4-6.1 20.2-14.5.7-2.1 1.1-4.4 1.1-6.8v-89.8z"/><path d="m122.4 4.1v76c0 10.8-8.7 19.7-19.7 20.5-.5 0-1.1.1-1.6.1h-79.9c.7-2.1 1.1-4.4 1.1-6.8v-89.8z"/></g><path d="m.8 115.2h.2z" stroke-linecap="round" stroke-linejoin="round" stroke-width="3"/><path d="m22.3 7.6v-6.9h100.1v93.2c0 11.2-8.7 20.4-19.7 21.3-.5 0-1.1.1-1.6.1h-100.1c11.8 0 21.3-9.5 21.3-21.3v-75.4" stroke-linecap="round" stroke-linejoin="round" stroke-width="3"/></g><g stroke-linecap="round" stroke-linejoin="round" stroke-width="3"><path d="m124.2 33.2h5.7"/><path d="m88.7 33.2h28.9"/><path d="m57.2 33.2h11.1"/><path d="m112.7 46.2h17.7"/><path d="m57.7 46.2h43.6"/><path d="m106.5 63.8h23.9"/><path d="m116.3 76.3h14.1"/><path d="m106.5 76.3h4.9"/><path d="m106.5 88.8h23.9"/><path d="m106.8 105.4h9.3"/><path d="m57.9 105.4h41.6"/></g><path d="m57.7 63.8h35.3v24.9h-35.3z" fill-rule="nonzero"/><path d="m62.4 67.5h30.6v21.3h-30.6z" fill-rule="nonzero"/><path d="m57.7 63.8h35.3v24.9h-35.3z" stroke-linecap="round" stroke-linejoin="round" stroke-width="3"/></g></svg>

<?xml version="1.0" encoding="UTF-8"?>
<svg width="146px" height="132px" viewBox="0 0 146 132" version="1.1" xmlns="http://www.w3.org/2000/svg" xmlns:xlink="http://www.w3.org/1999/xlink">
    <!-- Generator: Sketch 51.2 (57519) - http://www.bohemiancoding.com/sketch -->
    <title>News</title>
    <desc>Created with Sketch.</desc>
    <defs></defs>
    <g id="Page-1" stroke="none" stroke-width="1" fill="none" fill-rule="evenodd">
        <g id="News" transform="translate(1.000000, 2.000000)">
            <path d="M22,128.2 C10.2,128.2 0.7,118.7 0.7,106.9 L0.7,25.9 L43.3,25.9 L43.3,106.9 C43.3,118.7 33.7,128.2 22,128.2 Z" id="Shape" class="fill-neutral" fill-rule="nonzero"></path>
            <path d="M5.7,25.7 L43.2,25.7 L43.2,107.3 C43.2,118.8 33.8,128.2 22.3,128.2 L22.1,128.2 C10.6,128.2 1.2,118.8 1.2,107.3 L1.2,25.7 L5.7,25.7" id="Shape" class="fill-primary-100" fill-rule="nonzero"></path>
            <path d="M9.2,25.9 L43.3,25.9 L43.3,106.9 C43.3,118.7 33.8,128.2 22,128.2 C10.2,128.2 0.7,118.7 0.7,106.9 L0.7,25.9" id="Shape" class="stroke-primary" stroke-width="3" stroke-linecap="round" stroke-linejoin="round"></path>
            <g id="Group" transform="translate(8.000000, 0.000000)">
                <g transform="translate(12.000000, 0.000000)" id="Shape">
                    <path d="M13.3,0.4 L13,21.2 L24.8,113.6 L10.3,128.8 L95.8,128.9 C102.5,128.9 107.9,123.5 107.9,116.8 L107.9,0.5 L13.3,0.5 L13.3,0.4 Z" class="fill-neutral" fill-rule="nonzero"></path>
                    <path d="M27.1,2.3 L13,2.3 L13,26.7 L0.8,115.3 L95.7,115.3 C102.4,115.3 107.8,110.1 107.8,103.7 L107.8,2.4 L27.1,2.4 L27.1,2.3 Z" class="fill-primary-100" fill-rule="nonzero"></path>
                    <path d="M29.9,0.4 L29.3,0.4" class="stroke-primary" stroke-width="3" stroke-linecap="round" stroke-linejoin="round"></path>
                    <path d="M22.9,0.4 L13,0.4 L13,25.8 L0.8,115.3 L95.7,115.3 C102.4,115.3 107.8,109.9 107.8,103.2 L107.8,0.3 L43.7,0.3" class="stroke-primary" stroke-width="3" stroke-linecap="round" stroke-linejoin="round"></path>
                </g>
                <g transform="translate(0.000000, 12.000000)" id="Shape">
                    <path d="M12.9,103.3 C6.2,103.3 0.8,97.9 0.8,91.2 L0.8,0.2 L25,0.2 L25,91.2 C25,97.9 19.6,103.3 12.9,103.3 Z" class="fill-neutral" fill-rule="nonzero"></path>
                    <path d="M21.3,0.3 L25,0.3 L25,91.5 C25,98 19.7,103.3 13.2,103.3 L12.9,103.3 C6.4,103.3 1.1,98 1.1,91.5 L1.1,0.3 L21.3,0.3" fill="#C4E0FF" fill-rule="nonzero"></path>
                    <path d="M25,88.3 L25,88.7" class="stroke-primary" stroke-width="3" stroke-linecap="round" stroke-linejoin="round"></path>
                    <path d="M25,0.3 L25,74.3" class="stroke-primary" stroke-width="3" stroke-linecap="round" stroke-linejoin="round"></path>
                    <path d="M24.6,94.1 C23.3,99.4 18.5,103.3 12.9,103.3 C6.2,103.3 0.8,97.9 0.8,91.2 L0.8,0.2 L15.2,0.2" class="stroke-primary" stroke-width="3" stroke-linecap="round" stroke-linejoin="round"></path>
                </g>
            </g>
            <g id="Group" transform="translate(21.000000, 13.000000)">
                <path d="M122.4,0.7 L122.4,93.9 C122.4,105.1 113.7,114.3 102.7,115.2 C102.2,115.2 101.6,115.3 101.1,115.3 L22.3,115.3 L22.3,0.8 L122.4,0.8 L122.4,0.7 Z" id="Shape" class="fill-neutral" fill-rule="nonzero"></path>
                <path d="M0.8,115.2 C0.9,115.2 0.9,115.2 1,115.2 L0.8,115.2 Z" id="Shape" class="fill-primary-100" fill-rule="nonzero"></path>
                <path d="M121.4,5.2 L121.4,95.7 C121.4,106.5 112.7,115.4 101.7,116.2 C101.2,116.2 100.6,116.3 100.1,116.3 L4.54747351e-13,116.3 C9.4,116.3 17.4,110.2 20.2,101.8 C20.9,99.7 21.3,97.4 21.3,95 L21.3,5.2 L121.4,5.2 Z" id="Shape" class="fill-primary-100" fill-rule="nonzero"></path>
                <path d="M122.4,4.1 L122.4,80.1 C122.4,90.9 113.7,99.8 102.7,100.6 C102.2,100.6 101.6,100.7 101.1,100.7 L21.2,100.7 C21.9,98.6 22.3,96.3 22.3,93.9 L22.3,4.1 L122.4,4.1 Z" id="Shape" class="fill-neutral" fill-rule="nonzero"></path>
                <path d="M0.8,115.2 C0.9,115.2 0.9,115.2 1,115.2 L0.8,115.2 Z" id="Shape" class="stroke-primary" stroke-width="3" stroke-linecap="round" stroke-linejoin="round"></path>
                <path d="M22.3,7.6 L22.3,0.7 L122.4,0.7 L122.4,93.9 C122.4,105.1 113.7,114.3 102.7,115.2 C102.2,115.2 101.6,115.3 101.1,115.3 L1,115.3 C12.8,115.3 22.3,105.8 22.3,94 L22.3,18.6" id="Shape" class="stroke-primary" stroke-width="3" stroke-linecap="round" stroke-linejoin="round"></path>
            </g>
            <path d="M124.2,33.2 L129.9,33.2" id="Shape" class="stroke-primary" stroke-width="3" stroke-linecap="round" stroke-linejoin="round"></path>
            <path d="M88.7,33.2 L117.6,33.2" id="Shape" class="stroke-primary" stroke-width="3" stroke-linecap="round" stroke-linejoin="round"></path>
            <path d="M57.2,33.2 L68.3,33.2" id="Shape" class="stroke-primary" stroke-width="3" stroke-linecap="round" stroke-linejoin="round"></path>
            <path d="M112.7,46.2 L130.4,46.2" id="Shape" class="stroke-primary" stroke-width="3" stroke-linecap="round" stroke-linejoin="round"></path>
            <path d="M57.7,46.2 L101.3,46.2" id="Shape" class="stroke-primary" stroke-width="3" stroke-linecap="round" stroke-linejoin="round"></path>
            <path d="M106.5,63.8 L130.4,63.8" id="Shape" class="stroke-primary" stroke-width="3" stroke-linecap="round" stroke-linejoin="round"></path>
            <path d="M116.3,76.3 L130.4,76.3" id="Shape" class="stroke-primary" stroke-width="3" stroke-linecap="round" stroke-linejoin="round"></path>
            <path d="M106.5,76.3 L111.4,76.3" id="Shape" class="stroke-primary" stroke-width="3" stroke-linecap="round" stroke-linejoin="round"></path>
            <path d="M106.5,88.8 L130.4,88.8" id="Shape" class="stroke-primary" stroke-width="3" stroke-linecap="round" stroke-linejoin="round"></path>
            <path d="M106.8,105.4 L116.1,105.4" id="Shape" class="stroke-primary" stroke-width="3" stroke-linecap="round" stroke-linejoin="round"></path>
            <path d="M57.9,105.4 L99.5,105.4" id="Shape" class="stroke-primary" stroke-width="3" stroke-linecap="round" stroke-linejoin="round"></path>
            <rect id="Rectangle-path" class="fill-neutral" fill-rule="nonzero" x="57.7" y="63.8" width="35.3" height="24.9"></rect>
            <rect id="Rectangle-path" class="fill-primary-500" fill-rule="nonzero" x="62.4" y="67.5" width="30.6" height="21.3"></rect>
            <rect id="Rectangle-path" class="stroke-primary" stroke-width="3" stroke-linecap="round" stroke-linejoin="round" x="57.7" y="63.8" width="35.3" height="24.9"></rect>
        </g>
    </g>
</svg>
